atec-cache-info/trunk/assets/img/icons/php.svg

<svg viewBox="0 0 640 512" xmlns="http://www.w3.org/2000/svg"><path fill="#000" d="m320 104.5c171.4 0 303.2 72.2 303.2 151.5s-131.9 151.5-303.2 151.5c-171.4 0-303.2-72.2-303.2-151.5s131.9-151.5 303.2-151.5m0-16.8c-176.7 0-320 75.3-320 168.3s143.3 168.3 320 168.3 320-75.3 320-168.3-143.3-168.3-320-168.3zm-101.8 154.8c-7.9 40.5-35.8 36.3-70.1 36.3l13.7-70.6c38 0 63.8-4.1 56.4 34.3zm-120.8 107.8h36.7l8.7-44.8c41.1 0 66.6 3 90.2-19.1 26.1-24 32.9-66.7 14.3-88.1-9.7-11.2-25.3-16.7-46.5-16.7h-70.7zm185.7-213.6h36.5l-8.7 44.8c31.5 0 60.7-2.3 74.8 10.7 14.8 13.6 7.7 31-8.3 113.1h-37c15.4-79.4 18.3-86 12.7-92-5.4-5.8-17.7-4.6-47.4-4.6l-18.8 96.6h-36.5zm221.9 105.8c-8 41.1-36.7 36.3-70.1 36.3l13.7-70.6c38.2 0 63.8-4.1 56.4 34.3zm-120.8 107.8h36.8l8.7-44.8c43.2 0 67.1 2.5 90.2-19.1 26.1-24 32.9-66.7 14.3-88.1-9.7-11.2-25.3-16.7-46.5-16.7h-70.7z"/></svg>

<svg viewBox="0 0 640 512" xmlns="http://www.w3.org/2000/svg"><path d="M320 104.5c171.4 0 303.2 72.2 303.2 151.5S491.3 407.5 320 407.5c-171.4 0-303.2-72.2-303.2-151.5S148.7 104.5 320 104.5m0-16.8C143.3 87.7 0 163 0 256s143.3 168.3 320 168.3S640 349 640 256 496.7 87.7 320 87.7zM218.2 242.5c-7.9 40.5-35.8 36.3-70.1 36.3l13.7-70.6c38 0 63.8-4.1 56.4 34.3zM97.4 350.3h36.7l8.7-44.8c41.1 0 66.6 3 90.2-19.1 26.1-24 32.9-66.7 14.3-88.1-9.7-11.2-25.3-16.7-46.5-16.7h-70.7zm185.7-213.6h36.5l-8.7 44.8c31.5 0 60.7-2.3 74.8 10.7 14.8 13.6 7.7 31-8.3 113.1h-37c15.4-79.4 18.3-86 12.7-92-5.4-5.8-17.7-4.6-47.4-4.6l-18.8 96.6h-36.5zM505 242.5c-8 41.1-36.7 36.3-70.1 36.3l13.7-70.6c38.2 0 63.8-4.1 56.4 34.3zM384.2 350.3H421l8.7-44.8c43.2 0 67.1 2.5 90.2-19.1 26.1-24 32.9-66.7 14.3-88.1-9.7-11.2-25.3-16.7-46.5-16.7H417z"/></svg>
